svg/stb-proxy.svg

<svg xmlns="http://www.w3.org/2000/svg" xml:space="preserve" width="16.845" height="15.78" style="clip-rule:evenodd;fill-rule:evenodd;stroke-linejoin:round;stroke-miterlimit:2"><path d="M.881-.667h.262q.021 0 .041.008a.113.113 0 0 1 .056.057.1.1 0 0 1 .008.041v.596a.1.1 0 0 1-.005.032.1.1 0 0 1-.037.051.1.1 0 0 1-.028.016v.041H.195V.134A.1.1 0 0 1 .167.118.1.1 0 0 1 .145.095Q.135.082.13.067A.1.1 0 0 1 .125.035v-.596a.1.1 0 0 1 .008-.041.11.11 0 0 1 .056-.057.1.1 0 0 1 .041-.008h.262l-.03-.03a.3.3 0 0 1-.049-.059.1.1 0 0 1-.007-.034.1.1 0 0 1 .007-.034.08.08 0 0 1 .046-.047.1.1 0 0 1 .068 0q.016.007.029.019l.131.131.13-.131a.093.093 0 0 1 .096-.019q.016.007.028.019a.1.1 0 0 1 .019.028.1.1 0 0 1 .007.034.1.1 0 0 1-.007.034.291.291 0 0 1-.049.059z" style="fill-rule:nonzero" transform="matrix(15 0 0 15 -1.875 13.155)"/><path d="M.265.07.352.031h.691l.064.039v.035H.265Zm.361-.702L.481-.777A.02.02 0 0 1 .476-.79q0-.006.005-.012a.02.02 0 0 1 .012-.005q.008 0 .013.005l.17.17h.021l.17-.17q.005-.006.012-.005.007 0 .013.005a.02.02 0 0 1 .005.012.02.02 0 0 1-.005.013l-.145.145.017.002.014.005.01.011a.03.03 0 0 1 .004.017l-.031.026H.61L.581-.597a.03.03 0 0 1 .004-.017l.01-.011.014-.005z" style="fill:#e5e5e5;fill-rule:nonzero" transform="matrix(15 0 0 15 -1.875 13.155)"/><path d="M1.143-.597q.014 0 .024.011a.03.03 0 0 1 .011.025v.596a.04.04 0 0 1-.011.025.03.03 0 0 1-.024.01H.23A.03.03 0 0 1 .206.06.04.04 0 0 1 .195.035v-.596q0-.015.011-.025A.03.03 0 0 1 .23-.597z" style="fill:#ccc;fill-rule:nonzero" transform="matrix(15 0 0 15 -1.875 13.155)"/><path d="M1.073-.491q.015 0 .027.005a.1.1 0 0 1 .022.015.1.1 0 0 1 .015.022.07.07 0 0 1 0 .055.1.1 0 0 1-.015.022.1.1 0 0 1-.022.015.1.1 0 0 1-.027.006.1.1 0 0 1-.028-.005.1.1 0 0 1-.022-.015.1.1 0 0 1-.015-.023.067.067 0 0 1 0-.055.1.1 0 0 1 .015-.022l.022-.015a.1.1 0 0 1 .028-.005" style="fill:#f03a17;fill-rule:nonzero" transform="matrix(15 0 0 15 -1.875 13.155)"/><path d="M1.073-.281a.071.071 0 0 1 .049.021.1.1 0 0 1 .015.022.07.07 0 0 1 0 .055.1.1 0 0 1-.015.022.1.1 0 0 1-.022.015.1.1 0 0 1-.027.005.1.1 0 0 1-.028-.005l-.022-.015a.1.1 0 0 1-.015-.022.07.07 0 0 1 0-.055.1.1 0 0 1 .015-.022.1.1 0 0 1 .022-.015.1.1 0 0 1 .028-.006" style="fill:#757575;fill-rule:nonzero" transform="matrix(15 0 0 15 -1.875 13.155)"/><path d="M.932-.526q.015 0 .025.01t.01.025v.456a.04.04 0 0 1-.01.025.03.03 0 0 1-.025.01H.3a.03.03 0 0 1-.024-.01.04.04 0 0 1-.011-.025v-.456q0-.015.011-.025A.03.03 0 0 1 .3-.526z" style="fill:#383838;fill-rule:nonzero" transform="matrix(15 0 0 15 -1.875 13.155)"/></svg>

<svg xmlns="http://www.w3.org/2000/svg" xmlns:svg="http://www.w3.org/2000/svg" id="svg20568" width="16.845" height="15.78" version="1.1" viewBox="0 0 16.845 15.78" xml:space="preserve" style="clip-rule:evenodd;fill-rule:evenodd;stroke-linejoin:round;stroke-miterlimit:2"><g id="g20566" transform="matrix(0.24,0,0,0.24,-769.6662,-783.8778)"><g id="g15866" transform="matrix(62.5,0,0,62.5,3199.13,3320.97)"><path d="m 0.881,-0.667 h 0.262 c 0.014,0 0.028,0.003 0.041,0.008 0.012,0.006 0.023,0.013 0.033,0.023 0.01,0.01 0.017,0.021 0.023,0.034 0.005,0.013 0.008,0.026 0.008,0.041 V 0.035 C 1.248,0.046 1.246,0.057 1.243,0.067 1.24,0.077 1.235,0.087 1.229,0.095 1.222,0.104 1.215,0.112 1.206,0.118 1.198,0.125 1.188,0.13 1.178,0.134 V 0.175 H 0.195 V 0.134 C 0.185,0.13 0.175,0.125 0.167,0.118 0.158,0.112 0.151,0.104 0.145,0.095 0.138,0.087 0.134,0.077 0.13,0.067 0.127,0.057 0.125,0.046 0.125,0.035 v -0.596 c 0,-0.015 0.003,-0.028 0.008,-0.041 0.006,-0.013 0.013,-0.024 0.023,-0.034 0.01,-0.01 0.021,-0.017 0.033,-0.023 0.013,-0.005 0.027,-0.008 0.041,-0.008 h 0.262 c -0.01,-0.01 -0.02,-0.02 -0.03,-0.03 C 0.451,-0.707 0.441,-0.717 0.432,-0.728 0.424,-0.736 0.418,-0.746 0.413,-0.756 0.408,-0.767 0.406,-0.778 0.406,-0.79 c 0,-0.012 0.002,-0.023 0.007,-0.034 0.004,-0.01 0.01,-0.02 0.018,-0.028 0.008,-0.008 0.018,-0.014 0.028,-0.019 0.011,-0.004 0.022,-0.006 0.035,-0.006 0.011,0 0.023,0.002 0.033,0.006 0.011,0.005 0.02,0.011 0.029,0.019 l 0.131,0.131 0.13,-0.131 c 0.018,-0.017 0.038,-0.025 0.062,-0.025 0.012,0 0.024,0.002 0.034,0.006 0.011,0.005 0.02,0.011 0.028,0.019 0.008,0.008 0.014,0.018 0.019,0.028 0.005,0.011 0.007,0.022 0.007,0.034 0,0.012 -0.002,0.023 -0.007,0.034 -0.005,0.01 -0.011,0.02 -0.019,0.028 -0.009,0.011 -0.019,0.021 -0.03,0.031 -0.01,0.01 -0.02,0.02 -0.03,0.03 z" style="fill-rule:nonzero" id="path15854"/><path d="M 0.265,0.07 0.352,0.031 H 1.043 L 1.107,0.07 V 0.105 H 0.265 Z M 0.626,-0.632 0.481,-0.777 C 0.477,-0.781 0.476,-0.785 0.476,-0.79 c 0,-0.004 0.001,-0.008 0.005,-0.012 0.004,-0.003 0.008,-0.005 0.012,-0.005 0.005,0 0.01,0.001 0.013,0.005 l 0.17,0.17 h 0.021 l 0.17,-0.17 c 0.003,-0.004 0.008,-0.005 0.012,-0.005 0.005,0 0.009,0.002 0.013,0.005 0.003,0.003 0.005,0.008 0.005,0.012 0,0.005 -0.002,0.009 -0.005,0.013 l -0.145,0.145 c 0.005,0 0.011,0.001 0.017,0.002 0.005,0.001 0.01,0.003 0.014,0.005 0.004,0.003 0.007,0.007 0.01,0.011 0.003,0.005 0.004,0.01 0.004,0.017 L 0.761,-0.571 H 0.61 L 0.581,-0.597 c 0,-0.007 0.001,-0.012 0.004,-0.017 0.003,-0.004 0.006,-0.008 0.01,-0.011 0.004,-0.002 0.009,-0.004 0.014,-0.005 0.006,-0.001 0.012,-0.002 0.017,-0.002 z" style="fill:#e5e5e5;fill-rule:nonzero" id="path15856"/><path d="m 1.143,-0.597 c 0.009,0 0.018,0.004 0.024,0.011 0.007,0.007 0.011,0.015 0.011,0.025 V 0.035 C 1.178,0.044 1.174,0.053 1.167,0.06 1.161,0.067 1.152,0.07 1.143,0.07 H 0.23 C 0.221,0.07 0.212,0.067 0.206,0.06 0.199,0.053 0.195,0.044 0.195,0.035 v -0.596 c 0,-0.01 0.004,-0.018 0.011,-0.025 0.006,-0.007 0.015,-0.011 0.024,-0.011 z" style="fill:#ccc;fill-rule:nonzero" id="path15858"/><path d="m 1.073,-0.491 c 0.01,0 0.019,0.002 0.027,0.005 0.009,0.004 0.016,0.009 0.022,0.015 0.007,0.006 0.012,0.014 0.015,0.022 0.004,0.009 0.006,0.018 0.006,0.028 0,0.009 -0.002,0.018 -0.006,0.027 C 1.134,-0.386 1.129,-0.378 1.122,-0.372 1.116,-0.365 1.109,-0.36 1.1,-0.357 1.092,-0.353 1.083,-0.351 1.073,-0.351 1.063,-0.351 1.054,-0.353 1.045,-0.356 1.037,-0.36 1.029,-0.365 1.023,-0.371 1.016,-0.378 1.011,-0.385 1.008,-0.394 1.004,-0.402 1.002,-0.412 1.002,-0.421 c 0,-0.01 0.002,-0.019 0.006,-0.028 0.004,-0.008 0.009,-0.016 0.015,-0.022 0.007,-0.006 0.014,-0.011 0.022,-0.015 0.009,-0.003 0.018,-0.005 0.028,-0.005 z" style="fill:#f03a17;fill-rule:nonzero" id="path15860"/><path d="m 1.073,-0.281 c 0.01,0 0.019,0.002 0.027,0.006 0.009,0.004 0.016,0.009 0.022,0.015 0.007,0.006 0.012,0.014 0.015,0.022 0.004,0.009 0.006,0.018 0.006,0.028 0,0.009 -0.002,0.018 -0.006,0.027 C 1.134,-0.175 1.129,-0.167 1.122,-0.161 1.116,-0.155 1.109,-0.15 1.1,-0.146 1.092,-0.142 1.083,-0.141 1.073,-0.141 1.063,-0.141 1.054,-0.142 1.045,-0.146 1.037,-0.15 1.03,-0.155 1.023,-0.161 1.017,-0.167 1.012,-0.175 1.008,-0.183 1.004,-0.192 1.002,-0.201 1.002,-0.21 c 0,-0.01 0.002,-0.019 0.006,-0.028 0.003,-0.008 0.008,-0.016 0.015,-0.022 0.006,-0.006 0.014,-0.011 0.022,-0.015 0.009,-0.004 0.018,-0.006 0.028,-0.006 z" style="fill:#757575;fill-rule:nonzero" id="path15862"/><path d="m 0.932,-0.526 c 0.01,0 0.018,0.003 0.025,0.01 0.007,0.007 0.01,0.015 0.01,0.025 v 0.456 c 0,0.009 -0.003,0.018 -0.01,0.025 C 0.95,-0.003 0.942,0 0.932,0 H 0.3 C 0.291,0 0.283,-0.003 0.276,-0.01 0.269,-0.017 0.265,-0.026 0.265,-0.035 v -0.456 c 0,-0.01 0.004,-0.018 0.011,-0.025 0.007,-0.007 0.015,-0.01 0.024,-0.01 z" style="fill:#383838;fill-rule:nonzero" id="path15864"/></g></g></svg>
